X: 30
T:Rory O'More,1st part. JNu.19
M:6/8
L:1/8
Q:90
S:James Nuttall MS,c1830,Rossendale,East Lancs.
R:Jig
O:England
A:East Lancashire
N:At the end there is AL SEGNO, and the Segno is right at the beginning,
N:which potentially gives 12 bars. Compare with other versions to arrive
N:at your own solution.CGP
Z:vmp.Manchester Morris Men
K:A
"primo"a/f/|ecA cAA|ecA A2a/f/|ecA A>GA|cBB B2a/f/|!
ecA cAA|G/A/B/c/d/e/ fed|efe efg|aec A2:|!
|:a|agf ecA|dcB A2G|FGA Bcd|fee "NB"e2a:|]
